X:1
T:He Will Gather the Wheat
T:John Robson Sweney
T:He Will Gather the Wheat
T:Public Domain
T:Public Domain
T:Public Domain
C:John Robson Sweney
Z:Public Domain
%%score ( 1 2 ) ( 3 4 )
L:1/8
M:4/4
K:F
V:1 treble 
V:2 treble 
V:3 bass 
V:4 bass 
V:1
 [FA]>[GB] | [Fc]2 [Fd]>[Fc] [FA]2 [CF]>[FA] | (G3 F) [B,D]2 [B,D]2 | %3
w: 1.~Wh- en|Je- sus shall ga- ther the|na- * tions Be-|
w: 2.~Shall we|hear, from the lips of the|Sav- * ior, The|
w: 3.~He will|smile when He looks on His|child- * ren, And|
w: 4.~Th- en|let us be watch- ing and|wait- * ing, Our|
w: 5.~Th- us|liv- ing with hearts fixed on|Heav- * en, In|
 [A,C]2 [CF]>[CF] [CF]2 [FA]>[FA] | [EG]6 [FA]>[GB] | [Ac]2 [Bd]>[Ac] [FA]2 [CF]>[FA] | %6
w: Him at last to ap- pear,|Then, oh how|shall we stand in the judg-|
w: “Faith- ful ser- vant, well done”?|O- r, trem-|bling with fear and with an-|
w: on the ran- somed His seal;|He will clothe|them in heav- en- ly beau-|
w: burn- ing stea- dy and bright,|When the Bride-|groom shall call to the wed-|
w: tience we wait for the time,|When, the days|of our pil- grim- age end-|
 (G3 F) [B,D]2 [B,D]2 | [A,C]2 [CF]>[CG] [FA]2 [FA]>[EG] | F6 ||"^Refrain" [FA]>[FA] | %10
w: ment, * When sum-|our sen- tence to hear? *|||
w: guish, * Be ban-|a- way from His throne? *|||
w: ty, * As low|His foot- stool they kneel. He|will|ther the|
w: ding, * Our spir-|made rea- dy for flight. *|||
w: ed, * We’ll bask|the pre- sence di- vine. *|||
 [FB]2 [FB]>[FB] [FB]2 [Fd]>[Fd] | (c3 A) [Fc]2 [FA]>[FA] | [EG]2 [Ec]>[Ec] ([Ge][Fd])[Ec][F=B] | %13
w: |||
w: |||
w: wheat in His gar- ner, But|the * chaff will He|ter a- way; Then, * oh how|
w: |||
w: |||
 [Ec]6 [FA]>[GB] | [Ac]2 [Bd]>[Ac] [FA]2 [CF]>[FA] | (G3 F) [B,D]2 [B,D]>[B,D] | %16
w: |||
w: |||
w: shall we stand|at the judg- ment Of the|great * Re- sur- rec-|
w: |||
w: |||
 [A,C]2 [CF]>[CG] F2 (z G) x | F6 |] %18
w: ||
w: ||
w: Day? * * * *||
w: ||
w: ||
V:2
 x2 | x8 | D4 x4 | x8 | x8 | x8 | D4 x4 | x8 | F6 || x2 | x8 | F6 x2 | x8 | x8 | x8 | D4 x4 | %16
w: ||fore||||moned||||||||||
w: ||words,||||ished||||||||||
w: ||sees||||at||ga-|||scat-||||tion|
w: ||lamps||||its||||||||||
w: ||pa-||||in||||||||||
 x4 A3 E2 | F6 |] %18
w: ||
w: ||
w: ||
w: ||
w: ||
V:3
 [F,C]>[F,B,] | [F,A,]2 [F,B,]>[F,A,] [F,C]2 [F,A,]>[F,C] | [B,,B,]4 [B,,F,]2 [B,,F,]2 | %3
 F,2 [F,A,]>[F,A,] [F,A,]2 [F,C]>[F,C] | [C,C]6 [F,C]>[F,C] | %5
 [F,F]2 [F,F]>[F,F] [F,C]2 [F,A,]>[F,C] | [B,,B,]4 [B,,F,]2 [B,,F,]2 | %7
 [B,,F,]2 [C,A,]>[C,B,] [C,C]2 [C,C]>[C,B,] | [F,A,]6 || [F,C]>[F,C] | %10
 [B,,D]2 [B,,D]>[B,,D] [B,,D]2 [B,,B,]>[B,,B,] | (A,3 C) [F,A,]2 [F,C]>[F,C] | %12
 [G,C]2 [G,C]>[G,C] [G,=B,]2 [G,C][G,D] | [C,C]6 [F,C]>[F,C] | %14
 [F,F]2 [F,F]>[F,F] [F,C]2 [F,A,]>[F,C] | [B,,B,]4 [B,,F,]2 [B,,F,]>[B,,F,] | %16
 [C,F,]2 [C,A,]>[C,B,] C,2 (z B,) x | [F,A,]6 |] %18
V:4
 x2 | x8 | x8 | F,2 x6 | x8 | x8 | x8 | x8 | x6 || x2 | x8 | F,4 x4 | x8 | x8 | x8 | x8 | %16
 x4 C3 C,2 | x6 |] %18

